src/assets/duotone/Share.svg

<svg width="24" height="24" viewBox="0 0 24 24"  xmlns="http://www.w3.org/2000/svg">
<path opacity="0.4" d="M20.3601 12.7296C19.9901 12.7296 19.6801 12.4496 19.6401 12.0796C19.4001 9.87958 18.2201 7.89958 16.4001 6.63958C16.0701 6.40958 15.9901 5.95958 16.2201 5.62958C16.4501 5.29958 16.9001 5.21958 17.2301 5.44958C19.4001 6.95958 20.8001 9.31958 21.0901 11.9296C21.1301 12.3296 20.8401 12.6896 20.4401 12.7296C20.4101 12.7296 20.3901 12.7296 20.3601 12.7296Z" />
<path opacity="0.4" d="M3.7398 12.7802C3.7198 12.7802 3.6898 12.7802 3.6698 12.7802C3.2698 12.7402 2.9798 12.3802 3.0198 11.9802C3.2898 9.3702 4.6698 7.0102 6.8198 5.4902C7.1398 5.2602 7.5998 5.3402 7.8298 5.6602C8.0598 5.9902 7.9798 6.4402 7.6598 6.6702C5.8598 7.9502 4.6898 9.9302 4.4698 12.1202C4.4298 12.5002 4.1098 12.7802 3.7398 12.7802Z" />
<path opacity="0.4" d="M15.9901 21.1003C14.7601 21.6903 13.4401 21.9903 12.0601 21.9903C10.6201 21.9903 9.2501 21.6703 7.9701 21.0203C7.6101 20.8503 7.4701 20.4103 7.6501 20.0503C7.8201 19.6903 8.2601 19.5503 8.6201 19.7203C9.2501 20.0403 9.9201 20.2603 10.6001 20.3903C11.5201 20.5703 12.4601 20.5803 13.3801 20.4203C14.0601 20.3003 14.7301 20.0903 15.3501 19.7903C15.7201 19.6203 16.1601 19.7603 16.3201 20.1303C16.5001 20.4903 16.3601 20.9303 15.9901 21.1003Z" />
<path d="M12.05 2.00977C10.5 2.00977 9.22998 3.26977 9.22998 4.82977C9.22998 6.38977 10.49 7.64977 12.05 7.64977C13.61 7.64977 14.87 6.38977 14.87 4.82977C14.87 3.26977 13.61 2.00977 12.05 2.00977Z" />
<path d="M5.04998 13.8701C3.49998 13.8701 2.22998 15.1301 2.22998 16.6901C2.22998 18.2501 3.48998 19.5101 5.04998 19.5101C6.60998 19.5101 7.86998 18.2501 7.86998 16.6901C7.86998 15.1301 6.59998 13.8701 5.04998 13.8701Z" />
<path d="M18.9499 13.8701C17.3999 13.8701 16.1299 15.1301 16.1299 16.6901C16.1299 18.2501 17.3899 19.5101 18.9499 19.5101C20.5099 19.5101 21.7699 18.2501 21.7699 16.6901C21.7699 15.1301 20.5099 13.8701 18.9499 13.8701Z" />
</svg>

<?xml version="1.0" encoding="UTF-8"?>
<svg width="24" height="24" viewBox="0 0 24 24" xmlns="http://www.w3.org/2000/svg">
 <path d="m20.36 12.73c-0.37 0-0.68-0.28-0.72-0.65-0.24-2.2-1.42-4.18-3.24-5.44-0.33-0.23-0.41-0.68-0.18-1.01s0.68-0.41 1.01-0.18c2.17 1.51 3.57 3.87 3.86 6.48 0.04 0.4-0.25 0.76-0.65 0.8h-0.08z" opacity=".4"/>
 <path d="m3.7398 12.78h-0.07c-0.4-0.04-0.69-0.4-0.65-0.8 0.27-2.61 1.65-4.97 3.8-6.49 0.32-0.23 0.78-0.15 1.01 0.17 0.23 0.33 0.15 0.78-0.17 1.01-1.8 1.28-2.97 3.26-3.19 5.45-0.04 0.38-0.36 0.66-0.73 0.66z" opacity=".4"/>
 <path d="m15.99 21.1c-1.23 0.59-2.55 0.89-3.93 0.89-1.44 0-2.81-0.32-4.09-0.97-0.36-0.17-0.5-0.61-0.32-0.97 0.17-0.36 0.61-0.5 0.97-0.33 0.63 0.32 1.3 0.54 1.98 0.67 0.92 0.18 1.86 0.19 2.78 0.03 0.68-0.12 1.35-0.33 1.97-0.63 0.37-0.17 0.81-0.03 0.97 0.34 0.18 0.36 0.04 0.8-0.33 0.97z" opacity=".4"/>
 <path d="m12.05 2.0098c-1.55 0-2.82 1.26-2.82 2.82s1.26 2.82 2.82 2.82 2.82-1.26 2.82-2.82-1.26-2.82-2.82-2.82z"/>
 <path d="m5.05 13.87c-1.55 0-2.82 1.26-2.82 2.82s1.26 2.82 2.82 2.82 2.82-1.26 2.82-2.82-1.27-2.82-2.82-2.82z"/>
 <path d="m18.95 13.87c-1.55 0-2.82 1.26-2.82 2.82s1.26 2.82 2.82 2.82 2.82-1.26 2.82-2.82-1.26-2.82-2.82-2.82z"/>
</svg>
